X:1
T:dinlenemezem
T:Yine aşkın sırrı düştü serime
T:Zekai Dede Efendi 
T:Arr. by abu
%%score { ( 1 2 ) | ( 3 4 ) }
L:1/8
M:4/4
K:C
V:1 treble-8 nm="Guitar" snm="Guit."
V:2 treble-8 
V:3 tab stafflines=6 strings=E2,A2,D3,G3,B3,E4 nostems 
V:4 tab stafflines=6 strings=E2,A2,D3,G3,B3,E4 nostems 
V:1
 c2 f2 f2 e2 | gffe f4 | fefg e2 d2 | d2 ed c4 | dfed cBAB | c2 d2 c2 _B2 | A2 a2 a2 g2 | gffe f4 | %8
 fefg e2 d2 | d2 g2 g^f^d=d | c2 cB B2 BA | A8 |] %12
V:2
 A,6 B,2 | C6 C2 | G,6 A,2 | B,4 C2 C2 | D4 E4 | F4 ^F4 | A,2 B,2 C2 x2 | D4 x2 C2 | G,4 A,2 A,2 | %9
 D4 E4 | F4 G4 | x8 |] %12
V:3
 !2!C2 !1!F2 !1!F2 !1!E2 | !1!G !1!F !1!F !1!E !1!F4 | !1!F !1!E !1!F !1!G !1!E2 !2!D2 | %3
 !2!D2 !1!E !2!D !2!C4 | !2!D !1!F !1!E !2!D !2!C !2!B, !3!A, !2!B, | !2!C2 !2!D2 !2!C2 !3!_B,2 | %6
 !3!A,2 !1!A2 !1!A2 !1!G2 | !1!G !1!F !1!F !1!E !1!F4 | !1!F !1!E !1!F !1!G !1!E2 !2!D2 | %9
 !2!D2 !1!G2 !1!G !1!^F !2!^D !2!=D | !2!C2 !2!C !2!B, !2!B,2 !2!B, !3!A, | !3!A,8 |] %12
V:4
 !5!A,,6 !5!B,,2 | !5!C,6 !5!C,2 | !6!G,,6 !5!A,,2 | !5!B,,4 !5!C,2 !5!C,2 | !4!D,4 !4!E,4 | %5
 !4!F,4 !4!^F,4 | !5!A,,2 !5!B,,2 !5!C,2 x2 | !4!D,4 x2 !5!C,2 | !6!G,,4 !5!A,,2 !5!A,,2 | %9
 !4!D,4 !4!E,4 | !4!F,4 !3!G,4 | x8 |] %12

